svgs/solid/camera-viewfinder.svg

<svg xmlns="http://www.w3.org/2000/svg" viewBox="0 0 512 512"><!--! Font Awesome Pro 6.2.0 by @fontawesome - https://fontawesome.com License - https://fontawesome.com/license (Commercial License) Copyright 2022 Fonticons, Inc. --><path d="M56 0h80c13.3 0 24 10.7 24 24s-10.7 24-24 24H56c-4.4 0-8 3.6-8 8v80c0 13.3-10.7 24-24 24s-24-10.7-24-24V56C0 25.1 25.1 0 56 0zM376 0h80c30.9 0 56 25.1 56 56v80c0 13.3-10.7 24-24 24s-24-10.7-24-24V56c0-4.4-3.6-8-8-8H376c-13.3 0-24-10.7-24-24s10.7-24 24-24zM48 376v80c0 4.4 3.6 8 8 8h80c13.3 0 24 10.7 24 24s-10.7 24-24 24H56c-30.9 0-56-25.1-56-56V376c0-13.3 10.7-24 24-24s24 10.7 24 24zm464 0v80c0 30.9-25.1 56-56 56H376c-13.3 0-24-10.7-24-24s10.7-24 24-24h80c4.4 0 8-3.6 8-8V376c0-13.3 10.7-24 24-24s24 10.7 24 24zM180 128l6.2-16.4c3.5-9.4 12.5-15.6 22.5-15.6h94.7c10 0 19 6.2 22.5 15.6L332 128h36c26.5 0 48 21.5 48 48V336c0 26.5-21.5 48-48 48H144c-26.5 0-48-21.5-48-48V176c0-26.5 21.5-48 48-48h36zM320 256c0-35.3-28.7-64-64-64s-64 28.7-64 64s28.7 64 64 64s64-28.7 64-64z"/></svg>

<svg xmlns="http://www.w3.org/2000/svg" viewBox="0 0 512 512"><!--! Font Awesome Pro 6.1.2 by @fontawesome - https://fontawesome.com License - https://fontawesome.com/license (Commercial License) Copyright 2022 Fonticons, Inc. --><path d="M0 24C0 10.75 10.75 0 24 0H136C149.3 0 160 10.75 160 24C160 37.25 149.3 48 136 48H48V136C48 149.3 37.25 160 24 160C10.75 160 0 149.3 0 136V24zM208.6 96H303.4C313.4 96 322.3 102.2 325.8 111.6L332 128H368C394.5 128 416 149.5 416 176V336C416 362.5 394.5 384 368 384H144C117.5 384 96 362.5 96 336V176C96 149.5 117.5 128 144 128H180L186.2 111.6C189.7 102.2 198.6 96 208.6 96zM256 320C291.3 320 320 291.3 320 256C320 220.7 291.3 192 256 192C220.7 192 192 220.7 192 256C192 291.3 220.7 320 256 320zM488 0C501.3 0 512 10.75 512 24V136C512 149.3 501.3 160 488 160C474.7 160 464 149.3 464 136V48H376C362.7 48 352 37.25 352 24C352 10.75 362.7 0 376 0H488zM0 376C0 362.7 10.75 352 24 352C37.25 352 48 362.7 48 376V464H136C149.3 464 160 474.7 160 488C160 501.3 149.3 512 136 512H24C10.75 512 0 501.3 0 488V376zM376 512C362.7 512 352 501.3 352 488C352 474.7 362.7 464 376 464H464V376C464 362.7 474.7 352 488 352C501.3 352 512 362.7 512 376V488C512 501.3 501.3 512 488 512H376z"/></svg>
